favicon.svg

<svg version="1.1" id="Layer_1" xmlns="http://www.w3.org/2000/svg" xmlns:xlink="http://www.w3.org/1999/xlink" x="0px" y="0px"
	 width="100%" viewBox="0 0 185 195" enable-background="new 0 0 185 195" xml:space="preserve">
<path fill="#361061" opacity="1.000000" stroke="none" 
	d="
M18.000000,1.000000 
	C23.354929,1.000000 28.709860,1.000000 34.674496,1.371390 
	C36.540585,2.017248 37.862278,2.126246 39.043045,2.592295 
	C48.724773,6.413672 58.380272,10.301518 68.117676,14.490848 
	C71.325912,16.939491 74.460213,19.066473 77.806580,21.469757 
	C84.334206,26.998194 90.649765,32.250328 97.786446,38.185326 
	C96.413574,31.442928 95.239365,25.676199 94.512543,19.832932 
	C99.116951,20.176300 103.273979,20.596207 107.553650,21.369371 
	C119.919502,41.382153 131.216705,61.510220 138.418137,83.673409 
	C138.671448,84.452980 139.088501,85.197380 139.528809,85.895378 
	C144.492920,93.764915 149.550369,101.576591 154.435425,109.494698 
	C160.012238,118.534027 165.440216,127.665169 171.022125,137.117371 
	C172.686935,140.660812 174.262527,143.843277 175.908173,147.435242 
	C176.371414,149.740997 176.451721,151.776596 177.221466,153.505203 
	C178.939377,157.363129 178.064285,160.526718 175.182617,163.266632 
	C173.654648,164.719437 172.045380,166.203308 170.214890,167.199005 
	C165.230865,169.910141 161.293671,175.200729 154.314758,173.544174 
	C151.440826,172.074219 148.824921,170.864059 145.971008,169.417450 
	C140.677948,166.390503 135.735901,163.364822 130.539597,160.868347 
	C123.868790,157.663483 120.335045,158.893173 117.778091,165.901993 
	C115.416214,172.376053 114.035118,179.207916 111.833359,186.025467 
	C85.323997,191.481674 61.701160,186.228989 40.903419,169.058472 
	C42.097218,165.161957 42.859478,161.529358 44.330799,158.211182 
	C52.207016,140.448410 59.214718,122.133766 74.631203,108.961678 
	C75.579109,108.151772 75.442360,106.072395 75.810265,104.583672 
	C74.465851,104.280937 73.083214,103.604019 71.783287,103.736801 
	C63.928360,104.539139 57.319973,101.542259 53.921143,95.418503 
	C50.020283,88.390213 50.737606,80.222427 55.389896,74.597458 
	C63.182899,77.061409 70.743294,79.417221 78.276237,81.857819 
	C80.164848,82.469711 81.916687,83.524574 83.819595,84.065720 
	C85.776421,84.622200 87.841072,84.799522 89.858536,85.142761 
	C89.570175,83.191177 89.767113,80.992714 88.919121,79.325836 
	C79.416252,60.646172 65.842545,45.246952 49.868668,31.411633 
	C47.181721,29.427269 44.672340,27.710653 42.019478,25.678654 
	C36.744240,21.190559 31.214996,17.407585 26.613710,12.714752 
	C23.276936,9.311589 16.484093,8.057696 18.000000,1.000000 
M125.157341,113.143265 
	C123.863518,112.427917 122.573616,111.144730 121.274902,111.135742 
	C119.507751,111.123497 117.733849,112.084427 115.962845,112.628029 
	C116.653885,114.007286 116.989044,116.036026 118.101761,116.645760 
	C121.643051,118.586273 125.473763,119.998596 129.192657,121.614990 
	C129.573013,121.015831 129.953369,120.416679 130.333725,119.817520 
	C128.799881,117.753738 127.266045,115.689957 125.157341,113.143265 
z"/>
<path fill="#2FBBB5" opacity="1.000000" stroke="none" 
	d="
M146.209015,169.653900 
	C148.824921,170.864059 151.440826,172.074219 154.061310,173.832489 
	C149.007874,177.929321 144.339676,182.344025 138.805603,184.835144 
	C129.151337,189.180908 118.963943,192.342239 109.000000,196.000000 
	C98.979103,196.000000 88.958214,196.000000 78.285210,195.646393 
	C73.215149,194.233688 68.702065,193.466507 64.396301,192.063171 
	C48.735867,186.959122 35.387825,178.337799 24.344011,165.967728 
	C17.175543,157.938400 11.194762,149.274506 7.652911,139.130753 
	C5.116062,131.865295 3.195518,124.384644 1.000000,117.000000 
	C1.000000,108.312439 1.000000,99.624870 1.354821,90.283279 
	C2.485460,85.814133 2.982943,81.916702 4.082883,78.197441 
	C10.561733,56.290283 23.351015,38.932041 42.162964,25.994038 
	C44.672340,27.710653 47.181721,29.427269 49.545700,31.568636 
	C19.136038,52.159870 5.534118,80.353577 10.210282,116.437759 
	C13.007637,138.023880 23.450148,155.915894 40.799099,169.467499 
	C61.701160,186.228989 85.323997,191.481674 112.203720,186.035614 
	C125.294502,183.043198 136.380753,177.635529 146.209015,169.653900 
z"/>
<path fill="#2FBAB5" opacity="1.000000" stroke="none" 
	d="
M68.117676,14.490848 
	C77.977737,13.111980 87.955650,10.874326 97.836662,11.241871 
	C118.785179,12.021096 137.573959,19.243114 153.723969,33.118549 
	C169.830994,46.957047 179.882416,64.186401 184.383041,84.800522 
	C184.800842,86.714218 184.989685,88.677917 185.642426,90.809196 
	C186.000000,99.354233 186.000000,107.708466 185.642517,116.722168 
	C184.066666,127.878242 180.847168,137.737137 175.838120,147.025757 
	C174.262527,143.843277 172.686935,140.660812 171.209763,136.820496 
	C182.111481,109.076851 179.944458,82.914162 164.364716,58.421806 
	C151.143387,37.637035 132.088531,24.839699 107.431007,21.016111 
	C103.273979,20.596207 99.116951,20.176300 94.050850,19.745296 
	C87.959358,20.220619 82.776932,20.707037 77.594513,21.193455 
	C74.460213,19.066473 71.325912,16.939491 68.117676,14.490848 
z"/>
<path fill="#f6d7fb" opacity="1.000000" stroke="none" 
	d="
M40.903419,169.058472 
	C23.450148,155.915894 13.007637,138.023880 10.210282,116.437759 
	C5.534118,80.353577 19.136038,52.159870 49.723267,31.836384 
	C65.842545,45.246952 79.416252,60.646172 88.919121,79.325836 
	C89.767113,80.992714 89.570175,83.191177 89.858536,85.142761 
	C87.841072,84.799522 85.776421,84.622200 83.819595,84.065720 
	C81.916687,83.524574 80.164848,82.469711 78.276237,81.857819 
	C70.743294,79.417221 63.182899,77.061409 55.389896,74.597458 
	C50.737606,80.222427 50.020283,88.390213 53.921143,95.418503 
	C57.319973,101.542259 63.928360,104.539139 71.783287,103.736801 
	C73.083214,103.604019 74.465851,104.280937 75.810265,104.583672 
	C75.442360,106.072395 75.579109,108.151772 74.631203,108.961678 
	C59.214718,122.133766 52.207016,140.448410 44.330799,158.211182 
	C42.859478,161.529358 42.097218,165.161957 40.903419,169.058472 
z"/>
<path fill="#f6d7fb" opacity="1.000000" stroke="none" 
	d="
M107.553650,21.369371 
	C132.088531,24.839699 151.143387,37.637035 164.364716,58.421806 
	C179.944458,82.914162 182.111481,109.076851 171.120544,136.459534 
	C165.440216,127.665169 160.012238,118.534027 154.435425,109.494698 
	C149.550369,101.576591 144.492920,93.764915 139.528809,85.895378 
	C139.088501,85.197380 138.671448,84.452980 138.418137,83.673409 
	C131.216705,61.510220 119.919502,41.382153 107.553650,21.369371 
z"/>
<path fill="#f6d7fb" opacity="1.000000" stroke="none" 
	d="
M145.971008,169.417450 
	C136.380753,177.635529 125.294502,183.043198 112.592422,185.892349 
	C114.035118,179.207916 115.416214,172.376053 117.778091,165.901993 
	C120.335045,158.893173 123.868790,157.663483 130.539597,160.868347 
	C135.735901,163.364822 140.677948,166.390503 145.971008,169.417450 
z"/>
<path fill="#f6d7fb" opacity="1.000000" stroke="none" 
	d="
M77.806580,21.469757 
	C82.776932,20.707037 87.959358,20.220619 93.603470,19.821835 
	C95.239365,25.676199 96.413574,31.442928 97.786446,38.185326 
	C90.649765,32.250328 84.334206,26.998194 77.806580,21.469757 
z"/>
<path fill="#f6d7fb" opacity="1.000000" stroke="none" 
	d="
M125.444771,113.384720 
	C127.266045,115.689957 128.799881,117.753738 130.333725,119.817520 
	C129.953369,120.416679 129.573013,121.015831 129.192657,121.614990 
	C125.473763,119.998596 121.643051,118.586273 118.101761,116.645760 
	C116.989044,116.036026 116.653885,114.007286 115.962845,112.628029 
	C117.733849,112.084427 119.507751,111.123497 121.274902,111.135742 
	C122.573616,111.144730 123.863518,112.427917 125.444771,113.384720 
z"/>
</svg>

<svg xmlns="http://www.w3.org/2000/svg" xml:space="preserve" viewBox="0 0 185 195"><path fill="#361061" d="M18 1c5.355 0 10.71 0 16.674.371 1.867.646 3.188.755 4.369 1.221 9.682 3.822 19.337 7.71 29.075 11.899 3.208 2.448 6.342 4.575 9.689 6.979 6.527 5.528 12.843 10.78 19.98 16.715-1.373-6.742-2.548-12.509-3.274-18.352 4.604.343 8.761.763 13.04 1.536 12.367 20.013 23.664 40.141 30.865 62.304.253.78.67 1.524 1.11 2.222 4.965 7.87 10.022 15.682 14.907 23.6 5.577 9.039 11.005 18.17 16.587 27.622 1.665 3.544 3.24 6.726 4.886 10.318.463 2.306.544 4.342 1.313 6.07 1.718 3.858.843 7.022-2.038 9.762-1.528 1.452-3.138 2.936-4.968 3.932-4.984 2.711-8.921 8.002-15.9 6.345-2.874-1.47-5.49-2.68-8.344-4.127-5.293-3.026-10.235-6.052-15.431-8.549-6.671-3.205-10.205-1.975-12.762 5.034-2.362 6.474-3.743 13.306-5.945 20.123-26.509 5.457-50.132.204-70.93-16.967 1.194-3.896 1.956-7.529 3.428-10.847 7.876-17.763 14.884-36.077 30.3-49.25.948-.81.811-2.889 1.18-4.377-1.345-.303-2.728-.98-4.028-.847-7.855.802-14.463-2.195-17.862-8.318-3.9-7.029-3.183-15.197 1.469-20.822 7.793 2.464 15.353 4.82 22.886 7.26 1.889.613 3.64 1.668 5.544 2.209 1.956.556 4.021.734 6.039 1.077-.289-1.952-.092-4.15-.94-5.817-9.503-18.68-23.076-34.079-39.05-47.914-2.687-1.985-5.197-3.701-7.85-5.733-5.275-4.488-10.804-8.271-15.405-12.964C23.277 9.312 16.484 8.058 18 1m107.157 112.143c-1.293-.715-2.583-1.998-3.882-2.007-1.767-.013-3.541.948-5.312 1.492.69 1.38 1.026 3.408 2.139 4.018 3.541 1.94 7.372 3.353 11.09 4.969l1.142-1.797c-1.534-2.064-3.068-4.128-5.177-6.675"/><path fill="#2fbbb5" d="M146.209 169.654c2.616 1.21 5.232 2.42 7.852 4.178-5.053 4.097-9.721 8.512-15.255 11.003-9.655 4.346-19.842 7.507-29.806 11.165-10.02 0-20.042 0-30.715-.354-5.07-1.412-9.583-2.18-13.889-3.583-15.66-5.104-29.008-13.725-40.052-26.095-7.168-8.03-13.15-16.693-16.691-26.837C5.116 131.865 3.196 124.385 1 117c0-8.688 0-17.375.355-26.717 1.13-4.469 1.628-8.366 2.728-12.086 6.479-21.907 19.268-39.265 38.08-52.203 2.51 1.717 5.019 3.433 7.383 5.575-30.41 20.59-44.012 48.785-39.336 84.869 2.798 21.586 13.24 39.478 30.59 53.03 20.901 16.761 44.524 22.014 71.404 16.568 13.09-2.993 24.177-8.4 34.005-16.382"/><path fill="#2fbab5" d="M68.118 14.49c9.86-1.378 19.838-3.616 29.719-3.248 20.948.78 39.737 8.001 55.887 21.877 16.107 13.838 26.158 31.067 30.659 51.682.418 1.913.607 3.877 1.26 6.008.357 8.545.357 16.9 0 25.913-1.576 11.156-4.796 21.015-9.805 30.304-1.575-3.183-3.151-6.365-4.628-10.206 10.901-27.743 8.734-53.906-6.845-78.398-13.222-20.785-32.276-33.582-56.934-37.406-4.157-.42-8.314-.84-13.38-1.27-6.092.475-11.274.961-16.456 1.447-3.135-2.127-6.27-4.254-9.477-6.702"/><path fill="#f6d7fb" d="M40.903 169.058c-17.453-13.142-27.895-31.034-30.693-52.62-4.676-36.084 8.926-64.278 39.513-84.602 16.12 13.411 29.693 28.81 39.196 47.49.848 1.667.651 3.865.94 5.817-2.018-.343-4.083-.52-6.04-1.077-1.902-.541-3.654-1.596-5.543-2.208-7.533-2.44-15.093-4.797-22.886-7.26-4.652 5.624-5.37 13.792-1.469 20.82 3.399 6.124 10.007 9.121 17.862 8.319 1.3-.133 2.683.544 4.027.847-.368 1.488-.23 3.568-1.179 4.378-15.416 13.172-22.424 31.486-30.3 49.25-1.472 3.317-2.234 6.95-3.428 10.846M107.554 21.37c24.535 3.47 43.59 16.267 56.81 37.052 15.58 24.492 17.747 50.655 6.757 78.038-5.68-8.795-11.109-17.926-16.686-26.965-4.885-7.918-9.942-15.73-14.906-23.6-.44-.698-.858-1.442-1.11-2.222-7.202-22.163-18.5-42.29-30.865-62.304m38.417 148.048c-9.59 8.219-20.676 13.626-33.379 16.475 1.443-6.684 2.824-13.516 5.186-19.99 2.557-7.009 6.09-8.239 12.762-5.034 5.196 2.497 10.138 5.523 15.431 8.55M77.807 21.47c4.97-.763 10.152-1.25 15.796-1.648 1.636 5.854 2.81 11.62 4.183 18.363-7.136-5.935-13.452-11.187-19.98-16.715m47.639 91.915c1.821 2.305 3.355 4.369 4.889 6.433l-1.141 1.797c-3.72-1.616-7.55-3.029-11.091-4.97-1.113-.609-1.448-2.638-2.14-4.017 1.772-.544 3.546-1.505 5.313-1.492 1.299.009 2.589 1.292 4.17 2.249"/></svg>
